!!!!SEGMENT: pl-cz--ii-87--009-004_chwalibog-izydor-konstanty--msza-zalobna-sanctus.krn
!!!cenid: 18xx:1210
!!!COM: Chwalibóg, Izydor Konstanty
!!!COM-rismid: pe30020334
!!!CDT: 1826-1897
!!!CNT:
!!!OPR: Msza żałobna
!!!OTL: Sanctus
!!!OMV: 004
!!!PDT: 1888
!!!AGN: Sacred; Mass
!!!SMS-siglum: PL-CZ
!!!SMS-shelfmark: II-87
!!!SMS-shelfwork: 009-004 M
!!!SMS-variant:
!!!SMS-altvar:
!!!NIFC-rismid: 300033232
!!!URL-scan: http://repozytorium.nifc.pl/skany/pl-cz-nut--ii-87
!!!ONB-nifc: UWAGA: części Mszy: Kirie, Graduale, Offertorium, Sanctus, Benedictus, Agnus
!!!key: B-
**kern	**kern	**kern	**text	**kern	**text
*IGacmp	*IGacmp	*IGcoro	*IGcoro	*	*
*ICklav	*ICklav	*ICvox	*ICvox	*	*
*Iorgan	*Iorgan	*Ibass	*Itenor	*	*
*part3	*part3	*part2	*part2	*part1	*part1
*staff4	*staff3	*staff2	*staff2	*staff1	*staff1
*I"Organ	*	*I"Bas	*	*I"Tenory	*
*clefF4	*clefG2	*clefF4	*	*clefG2	*
*k[b-e-]	*k[b-e-]	*k[b-e-]	*	*k[b-e-]	*
*B-:	*B-:	*B-:	*	*B-:	*
*M4/4	*M4/4	*M4/4	*	*M4/4	*
*met(c)	*met(c)	*met(c)	*	*met(c)	*
=1	=1	=1	=1	=1	=1
*	*	*	*	*^	*
!	!	!	!	!LO:TX:a:t=Sanctus	!	!
1r	2b-/ 2dd	1r	.	2dd/	2b-\	Swię-
.	2f/ 2cc	.	.	2cc/	2f\	.
=2	=2	=2	=2	=2	=2	=2
1r	2d/ 2b-	1r	.	2b-/	2d\	-ty
.	8f/L	.	.	2r	2ryy	.
.	8b-/	.	.	.	.	.
.	8cc/	.	.	.	.	.
.	8dd/J	.	.	.	.	.
=3	=3	=3	=3	=3	=3	=3
1r	2cc/ 2ee-	1r	.	2ee-/	2cc\	Swię-
.	2b-/ 2dd	.	.	2dd/	2b-\	-ty
=4	=4	=4	=4	=4	=4	=4
1r	2f/ 2cc	1r	.	2cc/	2f\	Pan
.	8f/L	.	.	2ryy	2ryy	.
.	8a/	.	.	.	.	.
.	8b-/	.	.	.	.	.
.	8cc/J	.	.	.	.	.
=5	=5	=5	=5	=5	=5	=5
!LO:TX:t=P:2\right:problem	!	!	!	!	!	!
2BB-\ 2B-	1f 1b- 1dd	2B-\	.	2dd/	2b-\	Swię-
!LO:TX:t=P:2\right:problem	!	!	!	!	!	!
2AA-X\ 2A-X	.	2A-X\	.	2dd/	2b-\	-ty
=6	=6	=6	=6	=6	=6	=6
*	*^	*	*	*	*	*
2GG\ 2G	2e-/ 2b- 2ee-	2reyy	2G\	.	2ee-/	2b-\	Pan
2GG-X\ 2G-X	4ee-/	2e-/ 2b-	4G-X\	.	4ee-/	4b-\	Bóg
.	4een/	.	4G-\	.	4een/	4b-\	za-
*	*v	*v	*	*	*	*	*
=7	=7	=7	=7	=7	=7	=7
1FF 1F	2f/ 2an 2ff	2F\	.	2ff/	2an\	-stę-
.	2cc/	2F\	.	2cc/	2a\	-pów
=8	=8	=8	=8	=8	=8	=8
!!linebreak:original
*	*^	*	*	*	*	*
1FF 1F	2cc/	1f 1a	2F\	.	2cc/	2a\	nie-
.	2ee-/	.	2F\	.	2ee-/	2a\	-po-
*	*v	*v	*	*	*	*	*
=9	=9	=9	=9	=9	=9	=9
2.BB-/	2.f/ 2.b- 2.dd	2BB-/	.	2dd/	2b-\	-ję-
.	.	4BB-/	.	4dd/	4b-\	-ty
4r;	4r;	4r;	.	4r;	4ryy	.
*	*	*	*	*v	*v	*
=10	=10	=10	=10	=10	=10
4BB-/	1r	4BB-/	Peł-	1r	.
4C/	.	4C/	-ne	.	.
4D/	.	4D/	są	.	.
4E-/	.	4E-/	.	.	.
=11	=11	=11	=11	=11	=11
*	*^	*	*	*^	*
2F\	4cc/	4e-\	2F\	Nie-	4ee-/	4cc\	peł-
.	4b-/	4d\	.	.	4dd/	4b-\	-ne
4FF/	4a/	4c\	4F\	-ba	4cc/	4a\	.
4r	4B-/ 4g	4rAyy	4r	.	4b-/	4g\	są
*	*v	*v	*	*	*	*	*
=12	=12	=12	=12	=12	=12	=12
4F\	2A/ 2f	4F\	peł-	2cc/	2a\	peł-
4E-\	.	4E-\	-ne	.	.	.
4D\	4B-/ 4f	4D\	są	4b-/	4g\	-ne
4C/ 4A	4e-/ 4f	4C\	.	4a/	4f\	są
=13	=13	=13	=13	=13	=13	=13
1BB-	2.d/ 2.b-	2BB-/	.	2b-/	2d\	Nie-
.	.	4BB-/	.	4b-/	4d\	-bo
.	4d/ 4f 4a-X	4BB-/	.	4a-X/	4f\	i
=14	=14	=14	=14	=14	=14	=14
!!pagebreak:original
4E-\	1e- 1g	4E-\	.	2g/	2e-\	zie-
4F\	.	4F\	.	.	.	.
4G\	.	4G\	.	4g/	4e-\	-mi
4E-\	.	4E-\	.	4g/	4e-\	.
=15	=15	=15	=15	=15	=15	=15
2D\	2B-/ 2f 2b-	2D\	.	2b-/	2f\	peł-
!	!	!	!	!	!	!
!LO:SIC:v:s=2G\	!	!	!	!	!	!
2F\	2e-/ 2b- 2dd-X	2G\	.	2dd-X/	2b-\	-ne
=16	=16	=16	=16	=16	=16	=16
!	!	!LO:SIC:v:s=2A-\	!	!	!	!
2AA-X\ 2A-X	2e-/ 2a-X 2cc	2A\	.	2cc/	2a-X\	są
!	!	!LO:SIC:v:s=2AA-/	!	!	!	!
2AA-\ 2A-	2e-/ 2a- 2cc-X	2AA/	.	2cc-X/	2a-\	Nie-
=17	=17	=17	=17	=17	=17	=17
1BB- 1B-	1e- 1g 1b-	2BB-/	.	2b-/	2g\	-bo
.	.	2BB-/	.	2b-/	2g\	i
=18	=18	=18	=18	=18	=18	=18
1BB- 1B-	2e-/ 2g 2ee-	2B-\	.	2ee-/	2g\	zie-
.	2d/ 2f 2dd	2BB-/	.	2dd/	2f\	.
=19	=19	=19	=19	=19	=19	=19
*	*^	*	*	*	*	*
2E-\	2e-/ 2g 2ee-	2reyy	2E-\	.	2ee-/	2g\	-mi.
2r	2r	2r	2ryy	.	2r	2r	.
*	*v	*v	*	*	*v	*v	*
==	==	==	==	==	==
*-	*-	*-	*-	*-	*-
!!!system-decoration: [(s1,s2)]{(s3,s4)}
!!!AIN: 1 bass 1 organ
!!!ENC: Marcin Jachim
!!!END: 2020-11-08
!!!ENC: Krzysztof Stępień
!!!END: 2021-11-15
